!!!!SEGMENT: Sil2004-Intonuit_de_celo_Dominus.krn
!!!id: Sil2004
!!!AGN: Motet
!!!SCT: Lowinsky (1968)
!!!voices: 4
!!!COM: Andreas de Silva
!!!OTL: Intonuit de celo Dominus
**kern	**kern	**kern	**kern
*part4	*part3	*part2	*part1
*staff4	*staff3	*staff2	*staff1
*I"Bassus	*I"Tenor	*I"Altus	*I"Superius
*I'B	*I'T	*I'A	*I'S
*clefF4	*clefGv2	*clefGv2	*clefG2
*k[b-]	*k[b-]	*k[b-]	*k[b-]
*F:	*F:	*F:	*F:
*M2/1	*M2/1	*M2/1	*M2/1
*met(C|)	*met(C|)	*met(C|)	*met(C|)
!!section: Prima pars: Intonuit de celo Dominus
!!!OMD: Prima pars: Intonuit de celo Dominus
=1	=1	=1	=1
0r	0r	0r	1f
.	.	.	[1cc
=2	=2	=2	=2
0r	0r	1c	2cc]
.	.	.	2cc
.	.	[1f	1cc
=3	=3	=3	=3
0r	0r	2f]	1dd
.	.	2f	.
.	.	1f	2.cc
.	.	.	4dd
=4	=4	=4	=4
0r	0r	1g	2ee
.	.	.	1dd
.	.	1f	.
.	.	.	[2cc
=5	=5	=5	=5
0r	0r	1a	2cc]
.	.	.	4b-y
.	.	.	4a
.	.	2g	2b-y
.	.	[2a	[2cc
=6	=6	=6	=6
0r	1F	2a]	2cc]
.	.	4g	4b-y
.	.	4f	4a
.	[1c	[1e	[1g
=7	=7	=7	=7
1C	2c]	1e]	1g]
.	2c	.	.
[1F	1c	1r	1r
=8	=8	=8	=8
2F]	1d	0r	0r
2F	.	.	.
1F	2.c	.	.
.	4d	.	.
=9	=9	=9	=9
1G	2e	0r	0r
.	1d	.	.
1F	.	.	.
.	[2c	.	.
=10	=10	=10	=10
1A	2c]	0r	0r
.	4B-y	.	.
.	4A	.	.
2G	2B-y	.	.
[2A	[2c	.	.
=11	=11	=11	=11
2A]	2c]	0r	1r
4G	4B-y	.	.
4F	4A	.	.
2E	4G	.	[1cc
.	4F	.	.
2F	2A	.	.
=12	=12	=12	=12
1C	1G	1r	2cc]
.	.	.	2cc
1r	[1F	[1f	1cc
=13	=13	=13	=13
0r	1F]	2f]	1cc
.	.	2f	.
.	1r	1f	4dd
.	.	.	4cc
.	.	.	4dd
.	.	.	4ee
=14	=14	=14	=14
0r	0r	1f	1ff
.	.	1g	2ee
.	.	.	[2dd
=15	=15	=15	=15
0r	0r	1b-y	2dd]
.	.	.	4cc
.	.	.	4b-y
.	.	2.a	2.cc
.	.	4f	4a
=16	=16	=16	=16
0r	1r	2g	2b-y
.	.	2.a	1cc
.	[1c	.	.
.	.	4g	.
.	.	[2f	4b-y
.	.	.	4a
=17	=17	=17	=17
1r	2c]	2f]	1g
.	2c	2e	.
[1F	1c	[1f	[1a
=18	=18	=18	=18
2F]	1c	1f]	1a]
2F	.	.	.
1F	4d	1r	1r
.	4c	.	.
.	4d	.	.
.	4e	.	.
=19	=19	=19	=19
1F	1f	0r	0r
1G	2e	.	.
.	[2d	.	.
=20	=20	=20	=20
1B-y	2d]	0r	0r
.	4c	.	.
.	4B-y	.	.
2.A	2.c	.	.
4F	4A	.	.
=21	=21	=21	=21
2G	2B-y	0r	0r
1A	1c	.	.
4G	4B-y	.	.
4F	4A	.	.
=22	=22	=22	=22
2E	2G	0r	0r
2F	1c	.	.
1D	.	.	.
.	2Bni	.	.
=23	=23	=23	=23
0C	0c	2r	1r
.	.	2g	.
.	.	2.g	2r
.	.	.	2g
.	.	4f	.
=24	=24	=24	=24
2r	1r	2.e	2.g
2c	.	.	.
.	.	4d	4f
2.c	2r	1c	2.e
.	2c	.	.
4B-y	.	.	4d
=25	=25	=25	=25
2A	2.c	2r	1c
2G	.	2c	.
.	4B-y	.	.
1F	2A	2.c	2r
.	2G	.	2cc
.	.	4B-y	.
=26	=26	=26	=26
2r	1F	2.A	2.cc
2F	.	.	.
.	.	4G	4b-y
2.F	2r	1F	2.a
.	2f	.	.
4E	.	.	4g
=27	=27	=27	=27
2D	2.f	2r	2f
2C	.	2c	2g
.	4e	.	.
2BB-y	2d	2d	2b-y
2F	2c	2f	2a
=28	=28	=28	=28
2G	2B-y	2d	2g
2C	2c	2e	2.a
1D	1F	2A	.
.	.	.	4g
.	.	2B-y	[2f
=29	=29	=29	=29
1C	1G	0c	2f]
.	.	.	2e
[1F	[1F	.	1f
=30	=30	=30	=30
1F]	1F]	1r	1r
1r	1r	1c	1cc
=31	=31	=31	=31
1r	1r	2d	2a
.	.	2d	2b-y
1C	1c	1e	1g
=32	=32	=32	=32
2D	2A	1r	1r
2D	2B-y	.	.
1E	1G	1c	1cc
=33	=33	=33	=33
1r	1r	2d	2a
.	.	2d	2b-y
1C	1c	1e	1g
=34	=34	=34	=34
2D	2A	0r	0r
2D	2B-y	.	.
1E	1G	.	.
=35	=35	=35	=35
0r	0F	1r	1cc
.	.	1f	2cc
.	.	.	2dd
=36	=36	=36	=36
0r	0r	2f	2cc
.	.	2g	2b-y
.	.	2.f	1a
.	.	4e	.
=37	=37	=37	=37
0r	0r	2d	2r
.	.	2d	1a
.	.	2f	.
.	.	4e	[2cc
.	.	4d	.
=38	=38	=38	=38
0r	0r	2c	4cc]
.	.	.	4a
.	.	1g	1b-y
.	.	[2f	[2a
=39	=39	=39	=39
1r	1c	2f]	2a]
.	.	2e	2g
1F	2c	1f	1a
.	2d	.	.
=40	=40	=40	=40
2F	2c	0r	1r
2G	2B-y	.	.
2.F	[1A	.	2r
.	.	.	2a
4E	.	.	.
=41	=41	=41	=41
1D	1A]	1f	2a
.	.	.	2a
1r	1r	2f	2a
.	.	2g	2b-y
=42	=42	=42	=42
0r	1r	2f	1cc
.	.	2e	.
.	1f	[1d	1r
=43	=43	=43	=43
1B-y	2f	1d]	0r
.	2g	.	.
2B-y	2f	1r	.
2c	2e	.	.
=44	=44	=44	=44
2.B-y	1d	1r	2r
.	.	.	2f
4B-y	.	.	.
1G	2r	1g	2.b-y
.	2d	.	.
.	.	.	4a
=45	=45	=45	=45
2r	2e	2g	2g
2F	2f	2a	1cc
1G	1d	2.g	.
.	.	.	2bni
.	.	4f	.
=46	=46	=46	=46
2.C	2c	1e	1cc
.	4B-y	.	.
4D	4A	.	.
2E	2G	1r	1r
2F	[2A	.	.
=47	=47	=47	=47
2C	2A]	0r	1r
1F	4G	.	.
.	4F	.	.
.	1G	.	1cc
2E	.	.	.
=48	=48	=48	=48
1F	1F	1f	2cc
.	.	.	2dd
1r	1r	2f	2cc
.	.	2g	2b-y
=49	=49	=49	=49
0r	0r	2.f	1a
.	.	4e	.
.	.	1d	2r
.	.	.	[2a
=50	=50	=50	=50
0r	0r	2r	2a]
.	.	1d	2.b-y
.	.	.	4a
.	.	[2e	4g
.	.	.	4f
=51	=51	=51	=51
1r	1c	4e]	2g
.	.	4d	.
.	.	4c	2.a
.	.	4B-y	.
1F	2c	2.A	.
.	.	.	4g
.	2d	.	[2f
.	.	4G	.
=52	=52	=52	=52
2F	2c	2A	2f]
2G	2B-y	2B-y	2e
2.F	1A	1c	[1f
4E	.	.	.
=53	=53	=53	=53
1D	2r	1d	0f_
.	1A	.	.
2r	.	2c	.
2D	2B-y	2d	.
=54	=54	=54	=54
2F	4A	1c	1f]
.	4G	.	.
4E	4A	.	.
4D	4B-y	.	.
2E	2.c	2r	2r
[2F	.	[2A	2cc
.	4B-y	.	.
=55	=55	=55	=55
2F]	4A	2A]	2dd
.	4F	.	.
2E	1c	2G	2ee
1D	.	2A	1ff
.	2Bni	2F	.
=56	=56	=56	=56
0C	0c	1G	1ee
.	.	1r	1r
=57	=57	=57	=57
0r	0r	1c	1cc
.	.	2d	2a
.	.	2d	2b-y
=58	=58	=58	=58
1C	1c	1e	1g
2D	2A	1r	1r
2D	2B-y	.	.
=59	=59	=59	=59
1E	1G	1c	1cc
1r	1r	2d	2a
.	.	2d	2b-y
=60	=60	=60	=60
1C	1c	1e	2g
.	.	.	1a
2D	2A	1d	.
2BB-y	2B-y	.	4g
.	.	.	4f
=61	=61	=61	=61
[0C	0G	0c	1e
.	.	.	2r
.	.	.	2e
=62	=62	=62	=62
0C]	0r	2r	1g
.	.	2e	.
.	.	1g	2e
.	.	.	2e
=63	=63	=63	=63
0r	0r	2e	2.g
.	.	2e	.
.	.	.	4f
.	.	2.g	4e
.	.	.	4d
.	.	.	[2c
.	.	4f	.
=64	=64	=64	=64
0r	1r	4e	2c]
.	.	4d	.
.	.	1f	2.dd
.	1f	.	.
.	.	.	4cc
.	.	2e	[2cc
=65	=65	=65	=65
1G	1g	2d	2cc]
.	.	2d	2bni
1A	2e	1c	1cc
.	2c	.	.
=66	=66	=66	=66
2F	1f	0r	0r
2D	.	.	.
1G	2d	.	.
.	[2e	.	.
=67	=67	=67	=67
2E	4e]	0r	0r
.	4d	.	.
2.F	1c	.	.
4E	.	.	.
2D	[2B-y	.	.
=68	=68	=68	=68
1C	2B-]	1r	1cc
.	2A	.	.
1BB-y	1B-y	1f	1dd
=69	=69	=69	=69
0r	0r	1g	2b-y
.	.	.	1g
.	.	1e	.
.	.	.	[2cc
=70	=70	=70	=70
0r	0r	2c	2cc]
.	.	1f	2a
.	.	.	2f
.	.	2e	[2cc
=71	=71	=71	=71
0r	0r	2c	2cc]
.	.	2d	2b-y
.	.	2c	2.a
.	.	[2f	.
.	.	.	8gL
.	.	.	8fJ
=72	=72	=72	=72
1r	1c	4f]	1g
.	.	4e	.
.	.	2e	.
1D	1d	1f	1f
=73	=73	=73	=73
1G	2B-y	1d	2r
.	1G	.	1b-y
1E	.	2.g	.
.	[2c	.	2g
.	.	4f	.
=74	=74	=74	=74
2C	2c]	4e	2.cc
.	.	4d	.
1F	2A	2.c	.
.	.	.	4b-y
.	2F	.	2a
.	.	4d	.
2E	[2c	2e	2g
=75	=75	=75	=75
2F	2c]	2c	2a
2BB-y	2B-y	1d	1g
1D	2A	.	.
.	4G	2B-y	[2f
.	4F	.	.
=76	=76	=76	=76
1C	1G	0c	2f]
.	.	.	2e
[1F	[1F	.	1f
=77	=77	=77	=77
1F]	1F]	1r	1r
1r	1r	1c	1cc
=78	=78	=78	=78
1r	1r	2d	2a
.	.	2d	2b-y
1C	1c	1e	1g
=79	=79	=79	=79
2D	2A	1r	1r
2D	2B-y	.	.
1E	1G	1c	1cc
=80	=80	=80	=80
1r	1r	2d	2a
.	.	2d	2b-y
1C	1c	1e	2g
.	.	.	[2a
=81	=81	=81	=81
2D	2A	1d	2a]
2BB-y	2B-y	.	4g
.	.	.	4f
[1C	2G	[1c	1e
.	[2A	.	.
=82	=82	=82	=82
0C_	2A]	1c]	2f
.	2G	.	2.g
.	2.A	[1cl	.
.	.	.	4f
.	.	.	[2f
.	8GL	.	.
.	8FJ	.	.
=83	=83	=83	=83
1C]	1G	0c_	4f]
.	.	.	4e
.	.	.	4e
.	.	.	8dL
.	.	.	8eJ
[1Fl	[1Fl	.	[1fl
=84	=84	=84	=84
00F]	00F]	00c]	00f]
==	==	==	==
*-	*-	*-	*-
!!!system-decoration: [*]
!!!RDF**kern: i = editorial accidental
!!!RDF**kern: l = terminal long
!!!ENC: Benjamin Ory
!!!END: 2021/5/21
!!!EED: Benjamin Ory
!!!EEV: 2021/05/21
!!!YEC: Copyright 2021 Benjamin Ory, All Rights Reserved
!!!ONB: Translated from MusicXML on 2021/05/21
